Production/EA4S_WordDrawings/SVG/singles_SVG/mouse.svg

<?xml version="1.0" encoding="UTF-8" standalone="no"?><!DOCTYPE svg PUBLIC "-//W3C//DTD SVG 1.1//EN" "http://www.w3.org/Graphics/SVG/1.1/DTD/svg11.dtd"><svg width="100%" height="100%" viewBox="0 0 500 369" version="1.1" xmlns="http://www.w3.org/2000/svg" xmlns:xlink="http://www.w3.org/1999/xlink" xml:space="preserve" style="fill-rule:evenodd;clip-rule:evenodd;stroke-linejoin:round;stroke-miterlimit:1.41421;"><g id="mouse"><path d="M107.519,110.659c-12.404,1.914 -22.978,8.526 -33.124,15.611c-10.949,7.645 -20.522,17.62 -28.105,28.596c-5.381,7.787 -8.896,15.827 -11.863,24.758c-1.214,3.652 -2.33,7.338 -3.621,10.965c-0.59,1.658 -1.242,3.293 -1.985,4.89c-0.272,0.585 -0.505,1.159 -0.742,1.759c-0.029,0.074 -1.325,6.03 -0.741,2.668c-1.039,5.991 4.802,7.361 9.219,5.149c7.052,-3.531 8.638,-13.09 10.563,-19.962c1.121,-3.998 2.195,-8.01 3.434,-11.975c1.281,-4.104 2.325,-5.502 3.755,-8.414c11.346,-23.104 33.591,-37.268 53.697,-51.797c0.83,-0.603 0.907,-2.463 -0.487,-2.248Z" style="fill-rule:nonzero;"/><path d="M106.852,126.511c5.224,-12.854 6.861,-26.89 10.008,-40.341c3.149,-13.463 8.233,-26.49 16.867,-37.42c10.957,-13.87 27.004,-22.614 43.802,-27.312c34.174,-9.556 75.73,-2.07 101.569,23.095c11.369,11.071 19.511,26.137 21.976,41.848c2.99,19.057 -2.505,41.069 -14.243,56.446c-8.033,10.521 -21.889,19.792 -34.408,26.501c-12.474,6.683 -27.826,12.719 -41.988,8.238c-6.732,-2.13 -16.63,11.07 -8.719,14.323c19.299,7.937 42.229,-2.206 59.076,-11.727c18.518,-10.463 35.352,-24.229 45.393,-43.218c12.945,-24.482 14.744,-52.837 3.496,-78.177c-7.615,-17.154 -21.198,-30.819 -37.293,-40.183c-32.081,-18.663 -74.293,-20.027 -108.138,-5.468c-18.153,7.81 -34.212,20.286 -44.761,37.151c-7.027,11.237 -11.012,23.866 -13.602,36.789c-2.597,12.962 -4.496,26.679 -4.592,39.902c-0.023,3.367 4.77,1.49 5.557,-0.447Z" style="fill-rule:nonzero;"/><path d="M155.496,14.3c-1.557,-1.255 -3.118,-3.604 -4.778,-4.526c-2.242,-1.245 -4.533,-2.388 -6.787,-3.611c-4.295,-2.331 -9.773,-3.289 -14.519,-4.217c-10.75,-2.103 -22.067,-1.042 -32.628,1.529c-21.76,5.299 -41.271,21.945 -54.032,39.865c-11.315,15.89 -15.26,33.715 -12.035,52.801c1.485,8.797 3.91,17.5 7.69,25.595c2.978,6.374 7.477,13.915 14.318,16.68c6.529,2.64 16.603,-7.687 9.25,-12.21c-10.556,-6.494 -14.585,-22.071 -16.786,-33.41c-3.06,-15.759 -1.227,-30.332 7.743,-43.953c9.956,-15.118 25.588,-28.475 42.9,-34.096c9.324,-3.026 19.139,-3.41 28.846,-2.76c4.867,0.326 9.561,1.414 14.352,2.229c2.151,0.366 4.252,0.786 6.372,1.313c2.704,0.671 5.426,0.595 8.147,1.322c1.063,0.283 3.094,-1.627 1.947,-2.551Z" style="fill-rule:nonzero;"/><path d="M296.618,59.435c9.651,1.558 19.898,0.39 29.677,1.148c10.323,0.801 20.523,2.687 30.59,5.071c20.062,4.753 39.283,13.162 56.596,24.33c33.595,21.672 57.916,56.881 58.878,97.604c0.185,7.838 -1.005,15.321 -1.916,23.063c4.816,-2.159 9.631,-4.318 14.447,-6.477c-1.707,-1.464 -3.095,-2.275 -5.19,-3.058c-5.331,-1.989 -13.083,3.498 -10.905,9.57c0.708,1.976 1.389,3.563 2.771,5.179c4.742,5.54 13.179,-1.346 14.447,-6.477c5.069,-20.513 2.629,-43.75 -4.194,-63.535c-6.53,-18.941 -18.352,-35.834 -32.779,-49.594c-30.251,-28.852 -72.027,-45.126 -113.541,-47.059c-12.11,-0.563 -25.986,-0.961 -37.447,3.55c-2.224,0.878 -5.721,5.994 -1.434,6.685Z" style="fill-rule:nonzero;"/><path d="M26.427,209.718c12.237,8.03 26.56,12.484 40.361,17.096c13.71,4.58 27.749,8.513 41.867,11.622c28.38,6.252 57.253,9.643 86.286,10.589c30.916,1.008 61.766,-1.714 92.586,-3.786c31.803,-2.138 63.595,-4.568 95.252,-8.331c31.559,-3.751 62.965,-9.014 93.844,-16.574c3.547,-0.868 6.727,-4.443 7.478,-7.949c0.815,-3.808 -2.004,-7.829 -6.219,-7.087c-5.344,0.941 -10.666,1.688 -15.974,2.847c-5.051,1.104 -9.432,10.308 -2.574,12.016c5.141,1.281 10.002,1.509 15.237,0.587c0.42,-5.012 0.839,-10.023 1.259,-15.036c-61.801,15.133 -125.488,20.098 -188.798,24.335c-30.767,2.059 -61.463,4.527 -92.322,3.408c-28.96,-1.051 -57.545,-5.299 -85.868,-11.248c-12.586,-2.645 -25.021,-5.898 -37.405,-9.353c-13.409,-3.74 -26.567,-8.54 -40.319,-10.843c-3.664,-0.615 -8.759,5.037 -4.691,7.707Z" style="fill-rule:nonzero;"/><path d="M470.674,218.315c9.276,0.992 21.333,7.213 17.263,18.56c-2.289,6.38 -7.808,10.396 -13.562,13.519c-15.559,8.445 -34.802,10.905 -52.121,13.023c-51.884,6.344 -104.024,9.416 -155.64,18.129c-17.615,2.974 -35.431,3.964 -52.988,7.535c-16.937,3.445 -37.874,8.997 -47.229,24.978c-3.203,5.472 -2.339,11.615 2.859,15.254c4.937,3.456 12.493,3.395 18.218,3.598c13.949,0.495 27.984,-1.574 41.755,-3.557c26.168,-3.767 52.868,-5.929 79.279,-6.634c15.8,-0.422 32.017,-0.387 47.523,3.042c2.872,0.636 5.195,1.306 7.406,2.189c1.156,0.463 2.275,1.01 3.372,1.598c0.629,0.337 3.258,2.222 2.375,1.481c0.76,0.637 1.424,1.375 2.035,2.152c0.211,0.269 0.938,1.596 0.165,0.188c0.222,0.403 0.389,0.833 0.555,1.261c0.124,0.319 0.458,1.81 0.134,0.16c0.085,0.434 0.094,0.878 0.101,1.317c-0.026,-1.731 0.04,-0.594 -0.087,-0.042c0.464,-2.015 0.086,-0.343 -0.242,0.26c1.129,-2.075 0.022,-0.245 -0.383,0.224c1.652,-1.911 -0.046,-0.096 -0.498,0.283c-1.795,1.504 0.56,-0.315 -0.71,0.517c-0.745,0.487 -1.522,0.924 -2.301,1.356c-3.371,1.873 -6.159,2.864 -10.641,4.352c-10.028,3.329 -20.478,5.518 -30.853,7.445c-10.072,1.873 -20.059,3.83 -30.205,5.302c-3.765,0.546 -8.088,1.787 -11.342,2.417c-1.618,0.313 -3.221,0.701 -4.824,1.078c-0.527,0.124 -1.055,0.252 -1.581,0.381c-2.104,0.515 -1.865,0.402 -0.387,0.161c-2.396,0.39 -4.625,2.044 -5.157,4.526c-0.446,2.083 1.086,4.205 3.366,3.835c-0.48,0.077 0.902,-0.042 1.826,-0.065c0.854,-0.021 1.709,-0.032 2.563,-0.044c2.549,-0.034 4.904,0.005 7.711,0.038c7.028,0.084 14.34,-1.371 21.301,-2.27c16.619,-2.146 33.148,-4.587 49.134,-9.895c11.411,-3.788 27.172,-10.486 27.792,-24.502c0.525,-11.883 -14.313,-17.065 -23.396,-19.25c-15.703,-3.777 -32.522,-3.682 -48.57,-3.387c-17.098,0.314 -34.175,1.625 -51.188,3.297c-9.969,0.979 -19.987,1.928 -29.909,3.317c-13.504,1.89 -27.014,4.076 -40.68,4.274c-5.272,0.076 -11.312,-0.064 -14.984,-2.625c0.253,0.177 0.296,-0.045 0.138,0.349c0.634,-1.578 2.547,-3.473 4.675,-4.921c7.239,-4.927 16.03,-7.375 24.424,-9.484c9.643,-2.422 19.512,-3.892 29.358,-5.193c22.598,-2.986 45.117,-6.425 67.715,-9.404c29.348,-3.868 58.832,-6.41 88.252,-9.625c26.63,-2.911 54.483,-4.424 79.222,-15.653c10.935,-4.964 21.986,-12.681 26.264,-24.413c2.661,-7.298 1.721,-15.647 -3.888,-21.279c-5.451,-5.475 -13.838,-6.263 -21.149,-5.777c-2.897,0.191 -6.528,6.169 -2.266,6.624Z" style="fill-rule:nonzero;"/><path d="M96.831,151.291c-5.386,5.505 -7.1,13.01 -6.164,20.514c0.479,3.845 4.361,4.163 7.255,2.647c3.84,-2.01 6.913,-5.093 8.682,-9.072c1.784,-4.014 1.401,-8.138 0.802,-12.338c-0.751,-5.26 -6.369,-4.354 -9.558,-1.871c-5.278,4.109 -7.233,9.53 -6.603,16.09c0.769,8.001 11.017,3.634 13.235,-1.072c1.519,-3.221 2.268,-7.304 1.425,-10.771c-0.725,-2.984 -4.727,-3.322 -7.062,-2.576c-3.36,1.074 -5.493,3.723 -6.55,6.963c-0.156,0.477 -0.445,3.96 -0.298,2.235c-0.046,0.547 -0.675,3.626 -0.021,1.817c4.303,-0.877 8.607,-1.754 12.912,-2.63c-0.22,-1.03 0.104,-3.705 -0.59,-1.736c0.549,-1.556 -0.859,1.089 0.248,-0.354c0.423,-0.55 0.895,-1.059 1.317,-1.608c-3.509,0.284 -7.019,0.568 -10.528,0.853c1.229,2.448 1.837,5.704 -0.802,7.212c2.419,0.882 4.837,1.765 7.255,2.647c-0.926,-5.437 0.489,-9.387 1.731,-14.565c1.01,-4.203 -4.395,-4.727 -6.686,-2.385Z" style="fill-rule:nonzero;"/><path d="M31.809,203.184c0.095,-4.468 -5.436,-6.165 -9.018,-6.749c-5.24,-0.854 -10.479,2.412 -14.496,5.37c-5.632,4.146 -8.086,12.357 -1.846,16.956c4.986,3.675 12.194,3.281 17.887,1.989c7.93,-1.8 14.228,-8.481 15.975,-16.303c0.672,-3.007 -0.887,-5.555 -3.846,-6.295c-12.592,-3.146 -28.485,-2.356 -34.251,11.562c-1.185,2.859 -1.269,6.453 1.821,8.161c12.966,7.166 30.725,2.602 35.03,-12.488c0.927,-3.248 -1.113,-6.228 -4.256,-6.966c-11.826,-2.777 -24.124,-1.046 -32.473,8.417c-2.03,2.301 -2.861,6.483 -0.69,8.957c3.037,3.46 7.898,1.314 10.874,-0.881c4.518,-3.332 9.93,-2.494 15.123,-1.292c-1.419,-2.321 -2.837,-4.644 -4.256,-6.966c0.015,-0.051 0.876,-1.063 1.451,-1.309c-1.092,0.466 -2.147,0.5 -3.324,0.561c-2.427,0.128 -4.959,-0.658 -7.097,-1.74c0.607,2.721 1.215,5.441 1.821,8.161c0.952,-2.509 0.439,-0.895 0.14,-0.716c1.005,-0.602 2.671,-0.557 3.77,-0.644c3.244,-0.257 6.684,0.205 9.84,0.921c-1.281,-2.099 -2.563,-4.197 -3.846,-6.295c-0.403,1.993 0.376,-0.337 -0.395,1.393c0.584,-1.311 -1.068,1.087 0.242,-0.233c-0.598,0.603 -0.641,0.613 -2.352,1.121c-1.386,0.411 -5.009,0.247 -6.124,-0.172c-1.67,-0.626 -0.968,-0.203 -1.668,-1.059c0.556,0.679 0.563,1.31 0.443,2.147c-0.113,0.788 -1.815,2.615 -0.536,1.512c3.494,-3.019 7.823,-0.574 12.079,-1.978c2.24,-0.736 3.926,-2.767 3.978,-5.142Z" style="fill-rule:nonzero;"/><path d="M145.128,75.509c18.871,-24.972 50.267,-31.95 79.864,-25.505c28.927,6.301 55.313,28.354 51.989,60.342c-1.735,16.709 -11.601,29.621 -25.676,38.18c-14.675,8.922 -31.478,12.218 -47.246,18.419c-2.823,1.11 -5.082,6.229 -0.53,6.329c20.585,0.448 42.648,-8.395 59.144,-20.338c17.071,-12.36 26.718,-31.934 26.462,-52.924c-0.396,-32.708 -28.488,-54.215 -58.148,-60.592c-30.857,-6.635 -76.437,1.896 -87.937,35.697c-0.471,1.387 1.55,1.092 2.078,0.392Z" style="fill-rule:nonzero;"/><path d="M74.05,149.422c-1.688,-2.49 -6.491,1.311 -7.488,2.655c-1.396,1.884 -2.337,3.855 -2.839,6.148c-0.498,2.28 -0.306,4.686 0.201,6.938c0.707,3.143 2.145,3.873 5.208,3.968c2.462,0.076 4.837,-2.198 5.856,-4.223c2.508,-4.981 2.824,-10.288 1.957,-15.721c-0.779,-4.877 -5.824,-4.009 -8.848,-1.731c-6.043,4.552 -8.033,11.396 -7.532,18.7c0.255,3.726 3.852,4.817 6.989,3.924c4.006,-1.142 8.396,-3.926 9.869,-8.04c1.2,-3.357 1.289,-7.861 -2.427,-9.714c-4.135,-2.062 -9.974,1.805 -10.613,6.168c-0.253,1.721 -0.224,2.987 0.302,4.654c-0.449,-1.427 0.037,-2.647 0.905,-3.911c2.036,-1.597 2.417,-2.008 1.145,-1.232c-0.507,0.248 -1.021,0.484 -1.538,0.708c2.794,0.562 5.589,1.124 8.383,1.687c-0.357,-1.473 -0.494,-3.216 -0.332,-4.183c0.189,-0.709 0.196,-0.802 0.018,-0.277c0.342,-0.663 0.342,-0.734 0.003,-0.213c0.481,-0.597 0.497,-0.674 0.046,-0.231c0.33,-0.322 0.678,-0.625 1.041,-0.91c-2.861,-0.151 -5.723,-0.304 -8.583,-0.456c0.659,2.993 0.938,6.139 -0.308,9.004c1.952,-1.407 3.904,-2.815 5.856,-4.223c-0.802,0.024 -1.583,0.142 -2.351,0.396c1.733,0.632 3.466,1.265 5.199,1.896c-1.199,-2.133 -1.402,-4.151 -0.852,-6.5c0.397,-1.689 1.877,-3.595 0.733,-5.281Z" style="fill-rule:nonzero;"/></g></svg>

<?xml version="1.0" encoding="UTF-8"?>
<svg width="500px" height="369px" viewBox="0 0 500 369" version="1.1" xmlns="http://www.w3.org/2000/svg" xmlns:xlink="http://www.w3.org/1999/xlink">
    <!-- Generator: Sketch 41 (35326) - http://www.bohemiancoding.com/sketch -->
    <title>mouse</title>
    <desc>Created with Sketch.</desc>
    <defs></defs>
    <g id="Page-1" stroke="none" stroke-width="1" fill="none" fill-rule="evenodd">
        <g id="Layer_1" transform="translate(-5523.000000, -2877.000000)" fill="#000000">
            <g id="Layer_1_3_">
                <g id="mouse" transform="translate(5523.000000, 2877.000000)">
                    <path d="M107.519,110.659 C95.115,112.573 84.541,119.185 74.395,126.27 C63.446,133.915 53.873,143.89 46.29,154.866 C40.909,162.653 37.394,170.693 34.427,179.624 C33.213,183.276 32.097,186.962 30.806,190.589 C30.216,192.247 29.564,193.882 28.821,195.479 C28.549,196.064 28.316,196.638 28.079,197.238 C28.05,197.312 26.754,203.268 27.338,199.906 C26.299,205.897 32.14,207.267 36.557,205.055 C43.609,201.524 45.195,191.965 47.12,185.093 C48.241,181.095 49.315,177.083 50.554,173.118 C51.835,169.014 52.879,167.616 54.309,164.704 C65.655,141.6 87.9,127.436 108.006,112.907 C108.836,112.304 108.913,110.444 107.519,110.659 L107.519,110.659 Z" id="Shape"></path>
                    <path d="M106.852,126.511 C112.076,113.657 113.713,99.621 116.86,86.17 C120.009,72.707 125.093,59.68 133.727,48.75 C144.684,34.88 160.731,26.136 177.529,21.438 C211.703,11.882 253.259,19.368 279.098,44.533 C290.467,55.604 298.609,70.67 301.074,86.381 C304.064,105.438 298.569,127.45 286.831,142.827 C278.798,153.348 264.942,162.619 252.423,169.328 C239.949,176.011 224.597,182.047 210.435,177.566 C203.703,175.436 193.805,188.636 201.716,191.889 C221.015,199.826 243.945,189.683 260.792,180.162 C279.31,169.699 296.144,155.933 306.185,136.944 C319.13,112.462 320.929,84.107 309.681,58.767 C302.066,41.613 288.483,27.948 272.388,18.584 C240.307,-0.079 198.095,-1.443 164.25,13.116 C146.097,20.926 130.038,33.402 119.489,50.267 C112.462,61.504 108.477,74.133 105.887,87.056 C103.29,100.018 101.391,113.735 101.295,126.958 C101.272,130.325 106.065,128.448 106.852,126.511 L106.852,126.511 Z" id="Shape"></path>
                    <path d="M155.496,14.3 C153.939,13.045 152.378,10.696 150.718,9.774 C148.476,8.529 146.185,7.386 143.931,6.163 C139.636,3.832 134.158,2.874 129.412,1.946 C118.662,-0.157 107.345,0.904 96.784,3.475 C75.024,8.774 55.513,25.42 42.752,43.34 C31.437,59.23 27.492,77.055 30.717,96.141 C32.202,104.938 34.627,113.641 38.407,121.736 C41.385,128.11 45.884,135.651 52.725,138.416 C59.254,141.056 69.328,130.729 61.975,126.206 C51.419,119.712 47.39,104.135 45.189,92.796 C42.129,77.037 43.962,62.464 52.932,48.843 C62.888,33.725 78.52,20.368 95.832,14.747 C105.156,11.721 114.971,11.337 124.678,11.987 C129.545,12.313 134.239,13.401 139.03,14.216 C141.181,14.582 143.282,15.002 145.402,15.529 C148.106,16.2 150.828,16.124 153.549,16.851 C154.612,17.134 156.643,15.224 155.496,14.3 L155.496,14.3 Z" id="Shape"></path>
                    <path d="M296.618,59.435 C306.269,60.993 316.516,59.825 326.295,60.583 C336.618,61.384 346.818,63.27 356.885,65.654 C376.947,70.407 396.168,78.816 413.481,89.984 C447.076,111.656 471.397,146.865 472.359,187.588 C472.544,195.426 471.354,202.909 470.443,210.651 C475.259,208.492 480.074,206.333 484.89,204.174 C483.183,202.71 481.795,201.899 479.7,201.116 C474.369,199.127 466.617,204.614 468.795,210.686 C469.503,212.662 470.184,214.249 471.566,215.865 C476.308,221.405 484.745,214.519 486.013,209.388 C491.082,188.875 488.642,165.638 481.819,145.853 C475.289,126.912 463.467,110.019 449.04,96.259 C418.789,67.407 377.013,51.133 335.499,49.2 C323.389,48.637 309.513,48.239 298.052,52.75 C295.828,53.628 292.331,58.744 296.618,59.435 L296.618,59.435 Z" id="Shape"></path>
                    <path d="M26.427,209.718 C38.664,217.748 52.987,222.202 66.788,226.814 C80.498,231.394 94.537,235.327 108.655,238.436 C137.035,244.688 165.908,248.079 194.941,249.025 C225.857,250.033 256.707,247.311 287.527,245.239 C319.33,243.101 351.122,240.671 382.779,236.908 C414.338,233.157 445.744,227.894 476.623,220.334 C480.17,219.466 483.35,215.891 484.101,212.385 C484.916,208.577 482.097,204.556 477.882,205.298 C472.538,206.239 467.216,206.986 461.908,208.145 C456.857,209.249 452.476,218.453 459.334,220.161 C464.475,221.442 469.336,221.67 474.571,220.748 C474.991,215.736 475.41,210.725 475.83,205.712 C414.029,220.845 350.342,225.81 287.032,230.047 C256.265,232.106 225.569,234.574 194.71,233.455 C165.75,232.404 137.165,228.156 108.842,222.207 C96.256,219.562 83.821,216.309 71.437,212.854 C58.028,209.114 44.87,204.314 31.118,202.011 C27.454,201.396 22.359,207.048 26.427,209.718 L26.427,209.718 Z" id="Shape"></path>
                    <path d="M470.674,218.315 C479.95,219.307 492.007,225.528 487.937,236.875 C485.648,243.255 480.129,247.271 474.375,250.394 C458.816,258.839 439.573,261.299 422.254,263.417 C370.37,269.761 318.23,272.833 266.614,281.546 C248.999,284.52 231.183,285.51 213.626,289.081 C196.689,292.526 175.752,298.078 166.397,314.059 C163.194,319.531 164.058,325.674 169.256,329.313 C174.193,332.769 181.749,332.708 187.474,332.911 C201.423,333.406 215.458,331.337 229.229,329.354 C255.397,325.587 282.097,323.425 308.508,322.72 C324.308,322.298 340.525,322.333 356.031,325.762 C358.903,326.398 361.226,327.068 363.437,327.951 C364.593,328.414 365.712,328.961 366.809,329.549 C367.438,329.886 370.067,331.771 369.184,331.03 C369.944,331.667 370.608,332.405 371.219,333.182 C371.43,333.451 372.157,334.778 371.384,333.37 C371.606,333.773 371.773,334.203 371.939,334.631 C372.063,334.95 372.397,336.441 372.073,334.791 C372.158,335.225 372.167,335.669 372.174,336.108 C372.148,334.377 372.214,335.514 372.087,336.066 C372.551,334.051 372.173,335.723 371.845,336.326 C372.974,334.251 371.867,336.081 371.462,336.55 C373.114,334.639 371.416,336.454 370.964,336.833 C369.169,338.337 371.524,336.518 370.254,337.35 C369.509,337.837 368.732,338.274 367.953,338.706 C364.582,340.579 361.794,341.57 357.312,343.058 C347.284,346.387 336.834,348.576 326.459,350.503 C316.387,352.376 306.4,354.333 296.254,355.805 C292.489,356.351 288.166,357.592 284.912,358.222 C283.294,358.535 281.691,358.923 280.088,359.3 C279.561,359.424 279.033,359.552 278.507,359.681 C276.403,360.196 276.642,360.083 278.12,359.842 C275.724,360.232 273.495,361.886 272.963,364.368 C272.517,366.451 274.049,368.573 276.329,368.203 C275.849,368.28 277.231,368.161 278.155,368.138 C279.009,368.117 279.864,368.106 280.718,368.094 C283.267,368.06 285.622,368.099 288.429,368.132 C295.457,368.216 302.769,366.761 309.73,365.862 C326.349,363.716 342.878,361.275 358.864,355.967 C370.275,352.179 386.036,345.481 386.656,331.465 C387.181,319.582 372.343,314.4 363.26,312.215 C347.557,308.438 330.738,308.533 314.69,308.828 C297.592,309.142 280.515,310.453 263.502,312.125 C253.533,313.104 243.515,314.053 233.593,315.442 C220.089,317.332 206.579,319.518 192.913,319.716 C187.641,319.792 181.601,319.652 177.929,317.091 C178.182,317.268 178.225,317.046 178.067,317.44 C178.701,315.862 180.614,313.967 182.742,312.519 C189.981,307.592 198.772,305.144 207.166,303.035 C216.809,300.613 226.678,299.143 236.524,297.842 C259.122,294.856 281.641,291.417 304.239,288.438 C333.587,284.57 363.071,282.028 392.491,278.813 C419.121,275.902 446.974,274.389 471.713,263.16 C482.648,258.196 493.699,250.479 497.977,238.747 C500.638,231.449 499.698,223.1 494.089,217.468 C488.638,211.993 480.251,211.205 472.94,211.691 C470.043,211.882 466.412,217.86 470.674,218.315 L470.674,218.315 Z" id="Shape"></path>
                    <path d="M96.831,151.291 C91.445,156.796 89.731,164.301 90.667,171.805 C91.146,175.65 95.028,175.968 97.922,174.452 C101.762,172.442 104.835,169.359 106.604,165.38 C108.388,161.366 108.005,157.242 107.406,153.042 C106.655,147.782 101.037,148.688 97.848,151.171 C92.57,155.28 90.615,160.701 91.245,167.261 C92.014,175.262 102.262,170.895 104.48,166.189 C105.999,162.968 106.748,158.885 105.905,155.418 C105.18,152.434 101.178,152.096 98.843,152.842 C95.483,153.916 93.35,156.565 92.293,159.805 C92.137,160.282 91.848,163.765 91.995,162.04 C91.949,162.587 91.32,165.666 91.974,163.857 C96.277,162.98 100.581,162.103 104.886,161.227 C104.666,160.197 104.99,157.522 104.296,159.491 C104.845,157.935 103.437,160.58 104.544,159.137 C104.967,158.587 105.439,158.078 105.861,157.529 C102.352,157.813 98.842,158.097 95.333,158.382 C96.562,160.83 97.17,164.086 94.531,165.594 C96.95,166.476 99.368,167.359 101.786,168.241 C100.86,162.804 102.275,158.854 103.517,153.676 C104.527,149.473 99.122,148.949 96.831,151.291 L96.831,151.291 Z" id="Shape"></path>
                    <path d="M31.809,203.184 C31.904,198.716 26.373,197.019 22.791,196.435 C17.551,195.581 12.312,198.847 8.295,201.805 C2.663,205.951 0.209,214.162 6.449,218.761 C11.435,222.436 18.643,222.042 24.336,220.75 C32.266,218.95 38.564,212.269 40.311,204.447 C40.983,201.44 39.424,198.892 36.465,198.152 C23.873,195.006 7.98,195.796 2.214,209.714 C1.029,212.573 0.945,216.167 4.035,217.875 C17.001,225.041 34.76,220.477 39.065,205.387 C39.992,202.139 37.952,199.159 34.809,198.421 C22.983,195.644 10.685,197.375 2.336,206.838 C0.306,209.139 -0.525,213.321 1.646,215.795 C4.683,219.255 9.544,217.109 12.52,214.914 C17.038,211.582 22.45,212.42 27.643,213.622 C26.224,211.301 24.806,208.978 23.387,206.656 C23.402,206.605 24.263,205.593 24.838,205.347 C23.746,205.813 22.691,205.847 21.514,205.908 C19.087,206.036 16.555,205.25 14.417,204.168 C15.024,206.889 15.632,209.609 16.238,212.329 C17.19,209.82 16.677,211.434 16.378,211.613 C17.383,211.011 19.049,211.056 20.148,210.969 C23.392,210.712 26.832,211.174 29.988,211.89 C28.707,209.791 27.425,207.693 26.142,205.595 C25.739,207.588 26.518,205.258 25.747,206.988 C26.331,205.677 24.679,208.075 25.989,206.755 C25.391,207.358 25.348,207.368 23.637,207.876 C22.251,208.287 18.628,208.123 17.513,207.704 C15.843,207.078 16.545,207.501 15.845,206.645 C16.401,207.324 16.408,207.955 16.288,208.792 C16.175,209.58 14.473,211.407 15.752,210.304 C19.246,207.285 23.575,209.73 27.831,208.326 C30.071,207.59 31.757,205.559 31.809,203.184 L31.809,203.184 Z" id="Shape"></path>
                    <path d="M145.128,75.509 C163.999,50.537 195.395,43.559 224.992,50.004 C253.919,56.305 280.305,78.358 276.981,110.346 C275.246,127.055 265.38,139.967 251.305,148.526 C236.63,157.448 219.827,160.744 204.059,166.945 C201.236,168.055 198.977,173.174 203.529,173.274 C224.114,173.722 246.177,164.879 262.673,152.936 C279.744,140.576 289.391,121.002 289.135,100.012 C288.739,67.304 260.647,45.797 230.987,39.42 C200.13,32.785 154.55,41.316 143.05,75.117 C142.579,76.504 144.6,76.209 145.128,75.509 L145.128,75.509 Z" id="Shape"></path>
                    <path d="M74.05,149.422 C72.362,146.932 67.559,150.733 66.562,152.077 C65.166,153.961 64.225,155.932 63.723,158.225 C63.225,160.505 63.417,162.911 63.924,165.163 C64.631,168.306 66.069,169.036 69.132,169.131 C71.594,169.207 73.969,166.933 74.988,164.908 C77.496,159.927 77.812,154.62 76.945,149.187 C76.166,144.31 71.121,145.178 68.097,147.456 C62.054,152.008 60.064,158.852 60.565,166.156 C60.82,169.882 64.417,170.973 67.554,170.08 C71.56,168.938 75.95,166.154 77.423,162.04 C78.623,158.683 78.712,154.179 74.996,152.326 C70.861,150.264 65.022,154.131 64.383,158.494 C64.13,160.215 64.159,161.481 64.685,163.148 C64.236,161.721 64.722,160.501 65.59,159.237 C67.626,157.64 68.007,157.229 66.735,158.005 C66.228,158.253 65.714,158.489 65.197,158.713 C67.991,159.275 70.786,159.837 73.58,160.4 C73.223,158.927 73.086,157.184 73.248,156.217 C73.437,155.508 73.444,155.415 73.266,155.94 C73.608,155.277 73.608,155.206 73.269,155.727 C73.75,155.13 73.766,155.053 73.315,155.496 C73.645,155.174 73.993,154.871 74.356,154.586 C71.495,154.435 68.633,154.282 65.773,154.13 C66.432,157.123 66.711,160.269 65.465,163.134 C67.417,161.727 69.369,160.319 71.321,158.911 C70.519,158.935 69.738,159.053 68.97,159.307 C70.703,159.939 72.436,160.572 74.169,161.203 C72.97,159.07 72.767,157.052 73.317,154.703 C73.714,153.014 75.194,151.108 74.05,149.422 L74.05,149.422 Z" id="Shape"></path>
                </g>
            </g>
        </g>
    </g>
</svg>
